z_dist/img/bg/bp390/about-header-wave.svg

<svg width="390" height="1093" fill="none" xmlns="http://www.w3.org/2000/svg"><path fill-rule="evenodd" clip-rule="evenodd" d="M390 0H0v1012h390V0zM0 1012v56.25l16.25-5.62C32.5 1057 65 1045.75 97.5 1042c21.667-2.5 43.333-1.67 65-.83 10.833.41 21.667.83 32.5.83 9.982 0 19.964-.84 29.947-1.69 22.517-1.91 45.035-3.81 67.553 3.98 7.675 1.32 11.397 2.7 15.57 4.26 4.073 1.51 8.577 3.19 17.607 5.12 18.281 3.9 37.781 15.49 48.073 25.62 10.292 10.13 16.25 13.13 16.25 13.13V1012H0z" fill="#FFFCFF"/></svg>

<svg width="390" height="1093" viewBox="0 0 390 1093" fill="none" xmlns="http://www.w3.org/2000/svg">
<path fill-rule="evenodd" clip-rule="evenodd" d="M390 0H0V1012H390V0ZM2.86102e-05 1012V1068.25L16.25 1062.63C32.5 1057 65 1045.75 97.5 1042C119.167 1039.5 140.833 1040.33 162.5 1041.17C173.333 1041.58 184.167 1042 195 1042C204.982 1042 214.964 1041.16 224.947 1040.31C247.464 1038.4 269.982 1036.5 292.5 1044.29C300.175 1045.61 303.897 1046.99 308.07 1048.55C312.143 1050.06 316.647 1051.74 325.677 1053.67C343.958 1057.57 363.458 1069.16 373.75 1079.29C384.042 1089.42 390 1092.42 390 1092.42V1012H373.75H292.5H195H97.5H16.25H2.86102e-05Z" fill="#FFFCFF"/>
</svg>
